%
(Header)
(Generated by gcodetools from Inkscape.)
(Using default header. To add your own header create file "header" in the output dir.)
M3
(Header end.)
G21 (All units in mm)

(Start cutting path id: path3)
(Change tool to Default tool)

G00 Z5.000000
G00 X131.850800 Y21.683770

G01 Z-0.125000 F100.0(Penetrate)
G02 X131.461426 Y30.012098 Z-0.125000 I1485.135758 J73.607772 F400.000000
G02 X131.198490 Y36.528030 Z-0.125000 I908.758556 J39.934200
G03 X130.934772 Y43.043908 Z-0.125000 I-880.190631 J-32.360816
G03 X130.609600 Y49.856420 Z-0.125000 I-961.739902 J-42.491335
G02 X130.358374 Y56.652287 Z-0.125000 I237.733586 J12.190994
G02 X130.444320 Y57.147400 Z-0.125000 I1.299384 J0.029457
G03 X130.557172 Y57.720013 Z-0.125000 I-1.593396 J0.611458
G03 X131.356120 Y97.197600 Z-0.125000 I-7809.587688 J177.797392
G02 X132.469833 Y115.308536 Z-0.125000 I207.603985 J-3.676682
G02 X133.816040 Y120.511227 Z-0.125000 I18.112429 J-1.911115
G03 X137.156979 Y129.004050 Z-0.125000 I-158.623496 J67.303458
G03 X138.224200 Y132.651239 Z-0.125000 I-28.083911 J10.197502
G03 X138.701129 Y136.651275 Z-0.125000 I-19.231677 J4.321464
G03 X138.312600 Y138.071840 Z-0.125000 I-2.634172 J0.042961
G03 X134.794747 Y143.220670 Z-0.125000 I-54.087240 J-33.178041
G03 X130.431250 Y148.470711 Z-0.125000 I-60.608999 J-45.935958
G02 X129.247233 Y150.026061 Z-0.125000 I8.255260 J7.512699
G02 X129.245720 Y150.349185 Z-0.125000 I0.257910 J0.162773
G02 X129.841950 Y150.402738 Z-0.125000 I0.318182 J-0.196639
G02 X135.147850 Y143.789913 Z-0.125000 I-55.771213 J-50.183920
G03 X137.249586 Y140.909181 Z-0.125000 I136.175600 J97.144475
G03 X137.594190 Y140.510831 Z-0.125000 I2.925494 J2.182552
G02 X137.922758 Y140.102807 Z-0.125000 I-1.727051 J-1.727042
G02 X138.945550 Y138.404827 Z-0.125000 I-29.435892 J-18.887974
G02 X139.713426 Y136.624020 Z-0.125000 I-7.929245 J-4.475010
G02 X139.852450 Y135.477299 Z-0.125000 I-3.085675 J-0.955884
G02 X139.430948 Y133.365848 Z-0.125000 I-7.814458 J0.462178
G02 X134.496940 Y120.092888 Z-0.125000 I-319.865993 J111.351451
G03 X133.226094 Y116.410804 Z-0.125000 I40.737476 J-16.120611
G03 X132.751050 Y114.196605 Z-0.125000 I14.200206 J-4.204635
G03 X132.407498 Y109.991843 Z-0.125000 I39.254163 J-5.323696
G03 X131.734174 Y81.659958 Z-0.125000 I3155.416344 J-89.164296
G03 X131.314821 Y53.224715 Z-0.125000 I3141.327781 J-60.547882
G03 X131.505240 Y49.561900 Z-0.125000 I29.519472 J-0.301726
G02 X131.726917 Y46.762269 Z-0.125000 I-39.755678 J-4.556476
G02 X132.003020 Y38.234850 Z-0.125000 I-368.973606 J-16.214909
G03 X132.458032 Y28.569879 Z-0.125000 I184.464968 J3.841126
G03 X132.722320 Y28.434970 Z-0.125000 I0.173061 J0.012702
G02 X132.864646 Y28.356078 Z-0.125000 I0.049043 J-0.079351
G02 X132.822556 Y21.564245 Z-0.125000 I-305.407696 J-1.503410
G02 X132.634641 Y14.759057 Z-0.125000 I-330.756767 J5.728156
G02 X132.471030 Y13.925520 Z-0.125000 I-2.732981 J0.103620
G02 X132.352017 Y13.941676 Z-0.125000 I-0.057745 J0.021055
G02 X131.850760 Y21.683770 Z-0.125000 I255.555954 J20.433084
G01 X131.850800 Y21.683770 Z-0.125000
G00 Z5.000000

(End cutting path id: path3)


(Start cutting path id: path3)
(Change tool to Default tool)

G00 Z5.000000
G00 X145.272290 Y25.123390

G01 Z-0.125000 F100.0(Penetrate)
G02 X144.813432 Y30.542772 Z-0.125000 I31.823494 J5.423607 F400.000000
G02 X145.266290 Y67.250730 Z-0.125000 I1472.349730 J0.192707
G02 X145.704526 Y77.823563 Z-0.125000 I318.608788 J-7.910599
G02 X146.753600 Y92.852970 Z-0.125000 I644.938989 J-37.466339
G03 X147.479178 Y103.063222 Z-0.125000 I-490.331610 J39.975678
G03 X148.267860 Y117.834560 Z-0.125000 I-1025.539536 J62.163067
G02 X148.651313 Y124.650564 Z-0.125000 I339.102584 J-15.658380
G02 X148.762040 Y125.282487 Z-0.125000 I2.991281 J-0.198475
G02 X149.077091 Y125.807950 Z-0.125000 I1.147338 J-0.330729
G02 X150.791650 Y127.255449 Z-0.125000 I11.164730 J-11.485398
G03 X156.484674 Y132.047521 Z-0.125000 I-32.003257 J43.797873
G03 X157.896190 Y134.121459 Z-0.125000 I-4.284459 J4.433295
G01 X158.283880 Y135.057447 Z-0.125000
G01 X157.082580 Y136.527304 Z-0.125000
G03 X153.374870 Y140.659295 Z-0.125000 I-46.600722 J-38.086170
G03 X149.243560 Y144.491637 Z-0.125000 I-44.193912 J-43.498593
G03 X143.869166 Y148.834960 Z-0.125000 I-98.222789 J-116.043332
G03 X143.593540 Y148.849222 Z-0.125000 I-0.148120 J-0.192051
G02 X143.371010 Y148.815497 Z-0.125000 I-0.150801 J0.244013
G02 X142.199850 Y149.209146 Z-0.125000 I2.161877 J8.370897
G03 X140.998440 Y149.629432 Z-0.125000 I-4.142740 J-9.914955
G03 X138.956300 Y150.132235 Z-0.125000 I-8.030657 J-28.218107
G01 X136.891720 Y150.562711 Z-0.125000
G01 X135.559960 Y150.177131 Z-0.125000
G01 X134.228200 Y149.791551 Z-0.125000
G01 X136.893270 Y147.268841 Z-0.125000
G03 X139.638534 Y144.846886 Z-0.125000 I35.902098 J37.927870
G03 X141.678440 Y143.336692 Z-0.125000 I15.938030 J19.395600
G02 X143.628238 Y141.779534 Z-0.125000 I-7.932001 J-11.931366
G02 X144.331540 Y140.809510 Z-0.125000 I-2.278280 J-2.391807
G02 X144.693897 Y139.129789 Z-0.125000 I-3.365734 J-1.605017
G02 X144.257340 Y137.106249 Z-0.125000 I-5.410602 J0.108418
G03 X143.750194 Y135.656582 Z-0.125000 I10.321753 J-4.424464
G03 X142.373390 Y130.248303 Z-0.125000 I142.999920 J-39.283370
G02 X141.006148 Y124.832244 Z-0.125000 I-161.722281 J37.944928
G02 X139.875420 Y121.010496 Z-0.125000 I-81.622133 J22.071126
G03 X138.268795 Y114.133928 Z-0.125000 I41.183397 J-13.247960
G03 X136.814890 Y100.456060 Z-0.125000 I162.341392 J-24.172472
G02 X136.158159 Y90.526948 Z-0.125000 I-2411.160691 J154.492703
G02 X135.851750 Y86.336040 Z-0.125000 I-429.738963 J29.312734
G03 X134.648728 Y70.493512 Z-0.125000 I3830.488561 J-298.839800
G03 X134.006690 Y61.354440 Z-0.125000 I1273.810158 J-94.079808
G03 X133.783847 Y57.006736 Z-0.125000 I141.589538 J-9.436774
G03 X133.371900 Y43.665620 Z-0.125000 I1333.271050 J-47.845685
G02 X132.880980 Y30.384103 Z-0.125000 I-599.446899 J15.507324
G02 X132.715590 Y30.011090 Z-0.125000 I-0.564532 J0.027134
G02 X131.620536 Y30.483362 Z-0.125000 I-0.453367 J0.454465
G02 X133.835180 Y70.354030 Z-0.125000 I719.448302 J-19.965408
G03 X134.856412 Y82.968792 Z-0.125000 I-2569.985043 J214.402599
G03 X135.272220 Y88.663510 Z-0.125000 I-523.368726 J41.077085
G02 X137.592812 Y114.380667 Z-0.125000 I571.480802 J-38.604379
G02 X138.831910 Y120.162031 Z-0.125000 I29.842249 J-3.372511
G03 X140.729560 Y126.522815 Z-0.125000 I-159.601770 J51.078388
G03 X141.753460 Y130.713253 Z-0.125000 I-68.216187 J18.888393
G03 X143.432096 Y139.427314 Z-0.125000 I-230.095085 J48.843150
G03 X143.420250 Y140.340150 Z-0.125000 I-2.452745 J0.424666
G03 X143.028878 Y141.075439 Z-0.125000 I-1.419955 J-0.283996
G03 X140.564010 Y143.222439 Z-0.125000 I-15.840347 J-15.697149
G02 X133.458155 Y149.443951 Z-0.125000 I37.345802 J49.822942
G02 X133.188840 Y150.741422 Z-0.125000 I0.875059 J0.858322
G02 X133.445010 Y151.075587 Z-0.125000 I0.692568 J-0.265648
G02 X133.812280 Y151.195055 Z-0.125000 I0.367270 J-0.504800
G03 X134.187817 Y151.297502 Z-0.125000 I0.000000 J0.739520
G03 X134.371560 Y151.524747 Z-0.125000 I-0.211639 J0.359031
G02 X134.569946 Y151.667775 Z-0.125000 I0.198386 J-0.066071
G02 X135.348610 Y151.524747 Z-0.125000 I-0.000000 J-2.191085
G03 X136.232764 Y151.287604 Z-0.125000 I1.608832 J4.231514
G03 X137.381610 Y151.195055 Z-0.125000 I1.148846 J7.084242
G02 X138.529307 Y151.085633 Z-0.125000 I0.000000 J-6.073662
G02 X140.060140 Y150.679625 Z-0.125000 I-2.165789 J-11.254961
G03 X141.475565 Y150.360388 Z-0.125000 I2.199862 J6.456231
G03 X141.682070 Y150.491844 Z-0.125000 I0.022328 J0.192853
G02 X142.261843 Y150.724341 Z-0.125000 I0.388422 J-0.129467
G02 X146.416260 Y147.989134 Z-0.125000 I-12.132751 J-22.950649
G02 X153.641801 Y141.734706 Z-0.125000 I-84.975757 J-105.470714
G02 X155.489220 Y139.557672 Z-0.125000 I-8.230604 J-8.856817
G03 X156.368689 Y138.360535 Z-0.125000 I12.829123 J8.503216
G03 X158.012720 Y136.449036 Z-0.125000 I34.421262 J27.942095
G01 X159.713460 Y134.581718 Z-0.125000
G01 X158.107740 Y132.643345 Z-0.125000
G02 X156.379609 Y130.833655 Z-0.125000 I-13.671714 J11.325588
G02 X153.553860 Y128.502602 Z-0.125000 I-25.597317 J28.151340
G03 X150.628547 Y126.272666 Z-0.125000 I113.230807 J-151.574169
G03 X149.949980 Y125.699618 Z-0.125000 I6.775418 J-8.711290
G01 X149.294250 Y125.098986 Z-0.125000
G01 X149.114420 Y119.915123 Z-0.125000
G02 X148.516357 Y106.987088 Z-0.125000 I-559.917608 J19.424454
G02 X147.970900 Y100.145740 Z-0.125000 I-157.282126 J9.097605
G03 X147.165534 Y90.959277 Z-0.125000 I329.933320 J-33.553378
G03 X146.553340 Y80.905250 Z-0.125000 I394.691977 J-29.078624
G03 X145.516665 Y48.002280 Z-0.125000 I990.913615 J-47.688580
G03 X145.778550 Y28.924940 Z-0.125000 I333.196419 J-4.966491
G01 X145.956120 Y24.735470 Z-0.125000
G01 X146.190690 Y27.373280 Z-0.125000
G03 X146.711248 Y34.493972 Z-0.125000 I-226.200100 J20.115716
G03 X147.222340 Y45.372440 Z-0.125000 I-527.437870 J30.231333
G02 X147.412887 Y49.870790 Z-0.125000 I394.532138 J-14.458909
G02 X147.528110 Y51.734210 Z-0.125000 I67.965942 J-3.267340
G03 X147.655637 Y53.597059 Z-0.125000 I-131.405422 J9.931529
G03 X147.965850 Y58.871810 Z-0.125000 I-1045.040462 J64.106349
G02 X148.752773 Y69.834148 Z-0.125000 I355.348184 J-19.998988
G02 X149.510510 Y76.560640 Z-0.125000 I134.479598 J-11.743152
G03 X150.356194 Y83.382057 Z-0.125000 I-244.852849 J33.818707
G03 X150.441120 Y85.029810 Z-0.125000 I-14.159741 J1.555869
G03 X150.267153 Y85.696213 Z-0.125000 I-1.397932 J-0.009027
G03 X150.107172 Y85.672064 Z-0.125000 I-0.075522 J-0.041676
G03 X149.865198 Y84.225493 Z-0.125000 I18.478331 J-3.834474
G03 X149.392030 Y79.974260 Z-0.125000 I132.383255 J-16.886395
G02 X148.778695 Y74.155732 Z-0.125000 I-285.399767 J27.142615
G02 X148.594506 Y73.036178 Z-0.125000 I-11.786295 J1.364144
G01 X148.496371 Y73.044640 Z-0.125000
G02 X148.495180 Y75.784810 Z-0.125000 I35.646286 J1.385578
G02 X148.999135 Y81.993069 Z-0.125000 I72.373933 J-2.750365
G02 X150.603400 Y92.697810 Z-0.125000 I217.041349 J-27.054300
G03 X151.461034 Y98.577872 Z-0.125000 I-102.078866 J17.891242
G03 X152.160470 Y106.042010 Z-0.125000 I-163.837529 J19.117438
G02 X152.724778 Y112.860461 Z-0.125000 I287.573181 J-20.367533
G02 X153.098940 Y115.949647 Z-0.125000 I59.369821 J-5.623614
G03 X153.498272 Y119.034108 Z-0.125000 I-86.093287 J12.714209
G03 X153.553860 Y120.035756 Z-0.125000 I-8.996615 J1.001648
G02 X154.283195 Y122.809884 Z-0.125000 I5.640559 J-0.000000
G02 X157.409300 Y126.861318 Z-0.125000 I15.631329 J-8.829428
G02 X164.165128 Y132.626449 Z-0.125000 I48.244339 J-49.693834
G02 X165.876960 Y133.195899 Z-0.125000 I1.711832 J-2.288258
G02 X166.080554 Y132.880831 Z-0.125000 I0.000000 J-0.223314
G02 X165.365370 Y132.060729 Z-0.125000 I-1.713109 J0.772050
G03 X164.475738 Y131.456712 Z-0.125000 I7.808238 J-12.457598
G03 X160.991490 Y128.851271 Z-0.125000 I142.351982 J-193.999303
G01 X157.529650 Y126.213466 Z-0.125000
G01 X156.026740 Y123.966714 Z-0.125000
G03 X154.734233 Y121.641602 Z-0.125000 I13.462669 J-9.005566
G03 X154.340700 Y120.242750 Z-0.125000 I4.402924 J-1.993438
G02 X154.151963 Y118.766269 Z-0.125000 I-196.198375 J24.329527
G02 X153.860150 Y116.593231 Z-0.125000 I-420.382941 J55.346286
G03 X153.412189 Y112.432691 Z-0.125000 I71.958575 J-9.852091
G03 X152.468460 Y98.888620 Z-0.125000 I762.275465 J-59.919036
G02 X151.727263 Y89.429690 Z-0.125000 I-270.422441 J16.431669
G02 X150.563210 Y79.043270 Z-0.125000 I-327.220027 J31.414578
G03 X149.931213 Y72.930257 Z-0.125000 I124.480274 J-15.958640
G03 X149.207830 Y61.819950 Z-0.125000 I410.646017 J-32.315516
G02 X148.783879 Y54.843303 Z-0.125000 I-379.864837 J19.582079
G02 X148.567040 Y52.665200 Z-0.125000 I-37.207373 J2.604307
G03 X148.342301 Y50.487667 Z-0.125000 I42.179349 J-5.453611
G03 X147.979620 Y45.062110 Z-0.125000 I261.713898 J-20.219637
G02 X147.005412 Y28.021774 Z-0.125000 I-11851.471348 J669.008651
G02 X146.874730 Y25.976800 Z-0.125000 I-170.762860 J9.885803
G03 X146.790447 Y24.735312 Z-0.125000 I315.313742 J-22.029888
G03 X146.757260 Y24.192400 Z-0.125000 I56.952263 J-3.753817
G02 X146.570542 Y23.814417 Z-0.125000 I-0.537502 J0.030409
G02 X146.124950 Y23.649320 Z-0.125000 I-0.445592 J0.518769
G01 X145.523300 Y23.649320 Z-0.125000
G01 X145.272290 Y25.123390 Z-0.125000
G00 Z5.000000

(End cutting path id: path3)


(Start cutting path id: path3)
(Change tool to Default tool)

G00 Z5.000000
G00 X133.121270 Y71.440180

G01 Z-0.125000 F100.0(Penetrate)
G02 X133.196604 Y71.828113 Z-0.125000 I1.036497 J0.000000 F400.000000
G01 X133.277800 Y71.828100 Z-0.125000
G02 X133.353121 Y71.440177 Z-0.125000 I-0.961293 J-0.387923
G02 X133.277800 Y71.052270 Z-0.125000 I-1.036527 J0.000000
G01 X133.196583 Y71.052272 Z-0.125000
G02 X133.121270 Y71.440180 Z-0.125000 I0.961326 J0.387908
G01 X133.121270 Y71.440180 Z-0.125000
G00 Z5.000000

(End cutting path id: path3)


(Start cutting path id: path2)
(Change tool to Default tool)

G00 Z5.000000
G00 X114.140810 Y83.283120

G01 Z-0.125000 F100.0(Penetrate)
G02 X110.362854 Y92.460632 Z-0.125000 I84.886548 J40.310217 F400.000000
G02 X107.466630 Y102.290860 Z-0.125000 I94.536072 J33.194385
G03 X106.374013 Y106.787282 Z-0.125000 I-744.172601 J-178.450718
G03 X105.632940 Y109.738780 Z-0.125000 I-321.302021 J-79.104924
G02 X104.620361 Y115.477309 Z-0.125000 I37.204872 J9.523500
G02 X103.281760 Y133.479056 Z-0.125000 I366.745907 J36.321691
G02 X103.141488 Y144.523384 Z-0.125000 I148.985621 J7.415291
G02 X103.586990 Y146.022011 Z-0.125000 I2.987973 J-0.072713
G02 X103.904360 Y146.291946 Z-0.125000 I0.576500 J-0.356268
G02 X105.392380 Y146.769103 Z-0.125000 I3.645215 J-8.808870
G01 X106.961300 Y147.133582 Z-0.125000
G01 X109.771010 Y149.848978 Z-0.125000
G01 X112.580730 Y152.564368 Z-0.125000
G01 X111.582930 Y152.547928 Z-0.125000
G03 X110.589725 Y152.480316 Z-0.125000 I0.158333 J-9.654619
G03 X108.232670 Y152.145593 Z-0.125000 I6.595877 J-54.913273
G01 X105.880200 Y151.759702 Z-0.125000
G01 X103.888040 Y150.403994 Z-0.125000
G03 X101.932130 Y149.000289 Z-0.125000 I27.138773 J-39.879463
G03 X100.008400 Y147.470278 Z-0.125000 I30.327542 J-40.106130
G02 X98.103801 Y145.913455 Z-0.125000 I-71.331547 J85.322755
G02 X94.732774 Y143.254458 Z-0.125000 I-211.362871 J264.495524
G03 X87.038962 Y136.514035 Z-0.125000 I54.271804 J-69.709438
G03 X85.938766 Y134.600600 Z-0.125000 I2.885294 J-2.932015
G03 X84.605063 Y125.010548 Z-0.125000 I41.954363 J-10.722422
G03 X85.381274 Y113.288572 Z-0.125000 I63.724347 J-1.666962
G03 X87.596341 Y103.565684 Z-0.125000 I75.104902 J11.996626
G03 X91.876500 Y91.490810 Z-0.125000 I120.302918 J35.847533
G02 X92.613114 Y89.418886 Z-0.125000 I-20.287667 J-8.379606
G02 X92.619114 Y89.123952 Z-0.125000 I-0.527499 J-0.158260
G02 X92.511321 Y89.103511 Z-0.125000 I-0.058686 J0.015034
G02 X91.634202 Y90.545030 Z-0.125000 I8.667126 J6.261283
G03 X90.726791 Y92.159644 Z-0.125000 I-18.631470 J-9.408580
G03 X90.040545 Y93.107470 Z-0.125000 I-7.075779 J-4.400667
G02 X88.059530 Y96.206331 Z-0.125000 I11.034858 J9.236909
G02 X83.148782 Y107.721640 Z-0.125000 I150.788449 J71.109079
G02 X81.113539 Y113.999371 Z-0.125000 I59.245845 J22.676305
G02 X79.249712 Y122.292377 Z-0.125000 I101.657819 J27.203225
G01 X78.404587 Y126.918888 Z-0.125000
G01 X78.357687 Y133.505672 Z-0.125000
G02 X78.398764 Y140.056862 Z-0.125000 I244.604646 J1.742006
G02 X78.490824 Y140.275979 Z-0.125000 I0.321861 J-0.006329
G02 X80.413432 Y140.714129 Z-0.125000 I1.302368 J-1.277520
G02 X82.120155 Y138.963936 Z-0.125000 I-0.953257 J-2.636845
G02 X81.872789 Y138.656891 Z-0.125000 I-0.222276 J-0.074092
G02 X80.002606 Y139.192006 Z-0.125000 I0.610647 J5.669789
G03 X79.241053 Y139.260649 Z-0.125000 I-0.471908 J-0.976730
G03 X79.161595 Y138.958986 Z-0.125000 I0.048209 J-0.173994
G01 X79.546914 Y138.573664 Z-0.125000
G01 X79.111895 Y138.304800 Z-0.125000
G01 X78.676878 Y138.035947 Z-0.125000
G01 X78.885287 Y132.980482 Z-0.125000
G03 X80.800075 Y118.571660 Z-0.125000 I79.982672 J3.297254
G03 X85.529075 Y103.687350 Z-0.125000 I90.122946 J20.440208
G03 X89.885244 Y93.762978 Z-0.125000 I234.204631 J96.882731
G03 X90.163692 Y93.713680 Z-0.125000 I0.156460 J0.072705
G03 X90.199560 Y93.854948 Z-0.125000 I-0.100835 J0.100790
G03 X89.312341 Y96.589060 Z-0.125000 I-53.210537 J-15.755814
G02 X86.139843 Y106.542602 Z-0.125000 I158.238438 J55.917784
G02 X84.816608 Y112.376593 Z-0.125000 I52.925372 J15.071312
G02 X84.122470 Y119.790038 Z-0.125000 I48.784463 J8.307023
G02 X84.511172 Y129.289594 Z-0.125000 I80.669800 J1.456888
G02 X85.176703 Y134.684133 Z-0.125000 I118.075551 J-11.828799
G02 X85.406964 Y135.396109 Z-0.125000 I2.225147 J-0.326416
G02 X87.270651 Y137.883006 Z-0.125000 I8.484229 J-4.416330
G02 X94.118189 Y143.750619 Z-0.125000 I55.743754 J-58.123911
G03 X98.950574 Y147.445376 Z-0.125000 I-6102.477780 J7986.448467
G03 X102.243230 Y149.966768 Z-0.125000 I-2854.075452 J3730.517446
G01 X105.534780 Y152.489616 Z-0.125000
G01 X106.939530 Y152.682158 Z-0.125000
G02 X108.348622 Y152.811118 Z-0.125000 I2.137982 J-15.598035
G02 X111.093940 Y152.874702 Z-0.125000 I2.745318 J-59.234757
G02 X113.345061 Y152.469839 Z-0.125000 I-0.000000 J-6.460771
G02 X113.379440 Y152.025128 Z-0.125000 I-0.085609 J-0.230302
G03 X112.952821 Y151.715382 Z-0.125000 I1.095497 J-1.957515
G03 X110.139600 Y149.032328 Z-0.125000 I82.745163 J-89.575891
G01 X107.363890 Y146.299276 Z-0.125000
G01 X105.716040 Y145.931360 Z-0.125000
G01 X104.068200 Y145.563444 Z-0.125000
G01 X104.115700 Y136.573116 Z-0.125000
G03 X104.331160 Y127.590555 Z-0.125000 I240.106795 J1.265441
G03 X104.820980 Y120.060896 Z-0.125000 I169.291999 J7.232044
G03 X105.889419 Y110.890789 Z-0.125000 I159.883938 J13.981298
G03 X106.217560 Y110.480466 Z-0.125000 I0.514376 J0.074983
G02 X106.459808 Y110.260461 Z-0.125000 I-0.161431 J-0.421125
G02 X106.629510 Y109.653740 Z-0.125000 I-1.496901 J-0.745782
G03 X107.810153 Y102.842820 Z-0.125000 I39.020140 J3.256182
G03 X111.793580 Y90.243430 Z-0.125000 I138.275902 J36.787951
G03 X113.422251 Y86.083083 Z-0.125000 I101.146985 J37.197535
G03 X113.730974 Y85.533737 Z-0.125000 I2.468695 J1.025942
G03 X113.828883 Y85.577346 Z-0.125000 I0.044282 J0.032295
G03 X113.090490 Y88.465150 Z-0.125000 I-34.390600 J-7.255150
G02 X111.077733 Y98.035598 Z-0.125000 I54.852799 J16.532947
G02 X109.497880 Y117.807376 Z-0.125000 I233.910163 J28.639466
G01 X109.176500 Y126.341457 Z-0.125000
G01 X109.687240 Y132.832427 Z-0.125000
G01 X110.197970 Y139.323395 Z-0.125000
G01 X109.506550 Y141.281953 Z-0.125000
G01 X108.815120 Y143.240512 Z-0.125000
G01 X109.795080 Y144.477818 Z-0.125000
G02 X115.635245 Y150.457399 Z-0.125000 I31.633355 J-25.054021
G02 X118.031070 Y151.323050 Z-0.125000 I2.395825 J-2.882586
G02 X118.649608 Y150.690142 Z-0.125000 I0.000000 J-0.618701
G02 X117.972370 Y148.769786 Z-0.125000 I-3.274536 J0.075210
G03 X117.716887 Y148.347729 Z-0.125000 I1.769874 J-1.359711
G03 X116.947980 Y146.557056 Z-0.125000 I31.595453 J-14.627356
G02 X116.106716 Y144.821538 Z-0.125000 I-12.162621 J4.823975
G02 X115.509100 Y144.073577 Z-0.125000 I-2.790153 J1.616590
G01 X114.791240 Y143.407932 Z-0.125000
G01 X115.725440 Y140.184774 Z-0.125000
G03 X120.617423 Y124.930711 Z-0.125000 I272.595005 J79.009847
G03 X121.958370 Y122.483724 Z-0.125000 I8.121956 J2.859913
G01 X122.726430 Y121.502322 Z-0.125000
G01 X123.560620 Y121.819486 Z-0.125000
G01 X124.394800 Y122.136639 Z-0.125000
G01 X124.394800 Y121.523657 Z-0.125000
G02 X124.214145 Y121.091332 Z-0.125000 I-0.607627 J0.000000
G02 X123.774130 Y120.910675 Z-0.125000 I-0.440015 J0.445532
G03 X123.347254 Y120.716890 Z-0.125000 I0.000000 J-0.567061
G03 X123.153470 Y120.200893 Z-0.125000 I0.590091 J-0.515997
G02 X122.963798 Y119.667024 Z-0.125000 I-0.846177 J-0.000000
G02 X122.538610 Y119.444794 Z-0.125000 I-0.470753 J0.382815
G02 X121.754030 Y119.888152 Z-0.125000 I-0.060913 J0.808093
G02 X120.157450 Y124.169149 Z-0.125000 I18.603202 J9.376204
G03 X119.570123 Y125.979864 Z-0.125000 I-13.871091 J-3.498641
G03 X118.970290 Y127.139394 Z-0.125000 I-6.248232 J-2.497341
G02 X118.391820 Y128.308444 Z-0.125000 I4.769371 J3.087629
G02 X117.467300 Y131.328860 Z-0.125000 I31.360901 J11.250964
G03 X116.657077 Y134.403205 Z-0.125000 I-191.012525 J-48.696102
G03 X116.079590 Y136.427195 Z-0.125000 I-83.317234 J-22.677804
G02 X115.487614 Y138.447288 Z-0.125000 I199.161629 J59.459914
G02 X114.820120 Y140.807198 Z-0.125000 I270.780245 J77.863770
G01 X114.162860 Y143.170056 Z-0.125000
G01 X116.011940 Y146.841192 Z-0.125000
G03 X117.792881 Y150.501368 Z-0.125000 I-132.272610 J66.623601
G03 X117.776110 Y150.597245 Z-0.125000 I-0.076644 J0.035999
G03 X117.330054 Y150.617199 Z-0.125000 I-0.233939 J-0.233941
G03 X111.283340 Y145.172833 Z-0.125000 I70.434357 J-84.307044
G03 X110.157973 Y143.189041 Z-0.125000 I2.826445 J-2.914484
G03 X110.316620 Y141.068028 Z-0.125000 I3.436713 J-0.809381
G01 X110.823970 Y139.800027 Z-0.125000
G01 X110.402440 Y133.536238 Z-0.125000
G03 X110.246598 Y112.313214 Z-0.125000 I177.004686 J-11.911844
G03 X112.476880 Y94.067100 Z-0.125000 I132.892848 J6.984564
G03 X114.438322 Y85.715496 Z-0.125000 I105.510659 J20.373902
G03 X116.038970 Y81.226530 Z-0.125000 I31.956894 J8.865136
G02 X116.524560 Y79.555004 Z-0.125000 I-6.065823 J-2.668460
G02 X116.328120 Y79.326410 Z-0.125000 I-0.196440 J-0.029892
G02 X116.103452 Y79.458922 Z-0.125000 I0.000000 J0.256712
G02 X114.140770 Y83.283120 Z-0.125000 I61.019623 J33.732682
G01 X114.140810 Y83.283120 Z-0.125000
G00 Z5.000000

(End cutting path id: path2)


(Start cutting path id: path3)
(Change tool to Default tool)

G00 Z5.000000
G00 X151.027660 Y89.343950

G01 Z-0.125000 F100.0(Penetrate)
G03 X151.314823 Y92.066610 Z-0.125000 I-25.886893 J4.106808 F400.000000
G03 X151.174940 Y92.128930 Z-0.125000 I-0.081894 J0.004331
G03 X151.044468 Y91.884297 Z-0.125000 I0.336665 J-0.336665
G03 X150.614010 Y89.281910 Z-0.125000 I42.296500 J-8.333015
G03 X150.408610 Y86.994090 Z-0.125000 I26.004452 J-3.487803
G03 X150.472839 Y86.936164 Z-0.125000 I0.055926 J-0.002561
G03 X150.558616 Y87.014455 Z-0.125000 I-0.015455 J0.103068
G03 X151.027660 Y89.343910 Z-0.125000 I-27.921532 J6.834044
G01 X151.027660 Y89.343950 Z-0.125000
G00 Z5.000000

(End cutting path id: path3)


(Start cutting path id: path3)
(Change tool to Default tool)

G00 Z5.000000
G00 X123.159250 Y119.677857

G01 Z-0.125000 F100.0(Penetrate)
G02 X122.635560 Y120.478688 Z-0.125000 I2.002063 J1.880859 F400.000000
G02 X122.627210 Y120.922071 Z-0.125000 I0.542524 J0.231987
G02 X123.420216 Y121.503455 Z-0.125000 I0.848266 J-0.325511
G02 X124.159520 Y121.015431 Z-0.125000 I0.044850 J-0.736053
G03 X124.333093 Y120.776023 Z-0.125000 I0.496466 J0.177318
G03 X124.459900 Y120.782692 Z-0.125000 I0.059538 J0.076839
G03 X125.445010 Y122.358906 Z-0.125000 I-2.622070 J2.734700
G03 X128.596030 Y133.661386 Z-0.125000 I-143.741252 J46.164125
G02 X129.752507 Y138.302319 Z-0.125000 I207.655360 J-49.281217
G02 X130.466200 Y140.823383 Z-0.125000 I61.983657 J-16.185521
G03 X130.924538 Y143.905963 Z-0.125000 I-10.058075 J3.070865
G03 X130.462200 Y144.367787 Z-0.125000 I-0.462338 J-0.000515
G02 X130.205127 Y144.526540 Z-0.125000 I-0.000000 J0.287519
G02 X129.335250 Y146.617683 Z-0.125000 I14.444413 J7.235108
G02 X128.543875 Y149.481659 Z-0.125000 I25.872314 J8.690371
G02 X128.674090 Y149.643400 Z-0.125000 I0.130215 J0.028454
G02 X129.265642 Y149.304567 Z-0.125000 I-0.000000 J-0.685797
G02 X131.222380 Y145.298778 Z-0.125000 I-25.300256 J-14.839415
G01 X132.024120 Y143.281633 Z-0.125000
G01 X131.194780 Y140.488660 Z-0.125000
G03 X130.412361 Y137.683364 Z-0.125000 I83.839629 J-24.895295
G03 X129.655570 Y134.592377 Z-0.125000 I101.087462 J-26.388182
G02 X128.890459 Y131.503603 Z-0.125000 I-86.434062 J19.771179
G02 X127.792380 Y127.609951 Z-0.125000 I-138.475707 J36.950939
G03 X126.651146 Y123.727346 Z-0.125000 I623.657200 J-185.423719
G03 X126.079170 Y121.713683 Z-0.125000 I167.092537 J-48.550322
G02 X125.183528 Y119.626560 Z-0.125000 I-8.153204 J2.263032
G02 X124.517260 Y119.107871 Z-0.125000 I-1.003118 J0.601265
G02 X123.935811 Y119.138477 Z-0.125000 I-0.248110 J0.824873
G02 X123.159100 Y119.677854 Z-0.125000 I0.879267 J2.095084
G01 X123.159250 Y119.677857 Z-0.125000
G00 Z5.000000

(End cutting path id: path3)


(Start cutting path id: path1)
(Change tool to Default tool)

G00 Z5.000000
G00 X132.035200 Y155.914863

G01 Z-0.125000 F100.0(Penetrate)
G02 X132.001525 Y156.304374 Z-0.125000 I3.591790 J0.506735 F400.000000
G02 X131.957500 Y158.319923 Z-0.125000 I96.111501 J3.107604
G03 X130.241980 Y162.903663 Z-0.125000 I-7.198760 J-0.081326
G03 X125.842640 Y165.507271 Z-0.125000 I-5.982205 J-5.089578
G01 X124.176440 Y165.850088 Z-0.125000
G01 X121.610680 Y164.853288 Z-0.125000
G03 X118.097552 Y162.950009 Z-0.125000 I5.759656 J-14.825303
G03 X116.743970 Y161.360965 Z-0.125000 I2.530868 J-3.526874
G03 X116.163169 Y158.885699 Z-0.125000 I4.941988 J-2.465370
G03 X116.750970 Y157.363890 Z-0.125000 I2.274423 J0.004075
G01 X117.239130 Y156.824481 Z-0.125000
G01 X116.572420 Y156.612876 Z-0.125000
G02 X115.924617 Y156.478873 Z-0.125000 I-0.969821 J3.055526
G02 X115.774650 Y156.532326 Z-0.125000 I-0.018654 J0.184765
G02 X115.695069 Y156.687848 Z-0.125000 I0.201461 J0.201209
G02 X115.445730 Y158.556492 Z-0.125000 I32.643453 J5.306682
G01 X115.247860 Y160.449601 Z-0.125000
G01 X116.063480 Y161.841350 Z-0.125000
G02 X117.936736 Y164.178211 Z-0.125000 I8.902894 J-5.217424
G02 X120.371360 Y165.850064 Z-0.125000 I6.835861 J-7.346045
G02 X124.057666 Y167.458333 Z-0.125000 I20.684499 J-42.382020
G02 X124.977310 Y167.629833 Z-0.125000 I0.919644 J-2.379984
G02 X126.513265 Y167.155448 Z-0.125000 I-0.000000 J-2.723737
G02 X127.022400 Y166.233346 Z-0.125000 I-0.659429 J-0.965710
G03 X127.159116 Y166.033767 Z-0.125000 I0.225609 J0.007931
G03 X128.181760 Y165.736449 Z-0.125000 I1.725817 J4.028674
G02 X129.218514 Y165.353540 Z-0.125000 I-0.463042 J-2.848718
G02 X130.222600 Y164.495128 Z-0.125000 I-2.142614 J-3.522665
G02 X132.291925 Y161.345026 Z-0.125000 I-11.880281 J-10.058973
G02 X132.810460 Y159.270056 Z-0.125000 I-4.492232 J-2.224884
G02 X132.671577 Y155.770383 Z-0.125000 I-25.184295 J-0.753167
G02 X132.399990 Y155.526950 Z-0.125000 I-0.271587 J0.029783
G02 X132.174352 Y155.624440 Z-0.125000 I-0.000000 J0.309862
G02 X132.034890 Y155.914863 Z-0.125000 I0.387624 J0.364835
G01 X132.035200 Y155.914863 Z-0.125000
G00 Z5.000000

(End cutting path id: path1)


(Start cutting path id: path1)
(Change tool to Default tool)

G00 Z5.000000
G00 X135.099460 Y157.142667

G01 Z-0.125000 F100.0(Penetrate)
G02 X135.010218 Y157.861320 Z-0.125000 I3.269445 J0.770867 F400.000000
G02 X135.054660 Y160.026739 Z-0.125000 I30.029765 J0.466846
G03 X135.171735 Y162.199282 Z-0.125000 I-392.569427 J22.244370
G03 X135.185510 Y162.586964 Z-0.125000 I-12.455624 J0.636658
G02 X135.295602 Y162.870733 Z-0.125000 I0.447811 J-0.010495
G02 X135.524480 Y162.974878 Z-0.125000 I0.228878 J-0.199427
G02 X135.683041 Y162.844035 Z-0.125000 I0.000000 J-0.161496
G02 X135.659470 Y162.276634 Z-0.125000 I-1.210029 J-0.233924
G03 X135.798356 Y162.183222 Z-0.125000 I0.084821 J-0.023842
G03 X137.155430 Y163.439193 Z-0.125000 I-6.598074 J8.490352
G01 X138.847670 Y165.299996 Z-0.125000
G01 X139.074730 Y173.926163 Z-0.125000
G01 X139.301780 Y182.552330 Z-0.125000
G01 X141.024930 Y184.013078 Z-0.125000
G03 X142.718678 Y185.505227 Z-0.125000 I-38.344925 J45.232932
G03 X143.738980 Y186.497413 Z-0.125000 I-15.917179 J17.388935
G01 X144.729890 Y187.521002 Z-0.125000
G01 X144.926850 Y186.536204 Z-0.125000
G02 X145.033796 Y185.542486 Z-0.125000 I-5.436205 J-1.087669
G02 X145.123810 Y174.919914 Z-0.125000 I-626.739804 J-10.622572
G01 X145.123810 Y164.288420 Z-0.125000
G01 X143.909940 Y163.191766 Z-0.125000
G02 X142.661082 Y162.144846 Z-0.125000 I-14.748039 J16.324414
G02 X142.062070 Y161.755797 Z-0.125000 I-2.593210 J3.337055
G01 X141.428050 Y161.416483 Z-0.125000
G01 X141.336350 Y159.349858 Z-0.125000
G02 X141.066978 Y157.417722 Z-0.125000 I-10.360171 J0.459534
G02 X140.812670 Y157.140357 Z-0.125000 I-0.375470 J0.088992
G01 X140.380660 Y156.997483 Z-0.125000
G01 X140.595260 Y159.287937 Z-0.125000
G01 X140.809860 Y161.578391 Z-0.125000
G01 X141.489980 Y162.043887 Z-0.125000
G03 X142.148396 Y162.537032 Z-0.125000 I-5.449146 J7.961455
G03 X143.336620 Y163.554066 Z-0.125000 I-22.077340 J26.996110
G01 X144.503140 Y164.598750 Z-0.125000
G01 X144.503140 Y175.454900 Z-0.125000
G01 X144.503140 Y186.311049 Z-0.125000
G01 X142.335060 Y184.340786 Z-0.125000
G01 X140.166960 Y182.370523 Z-0.125000
G01 X139.996100 Y176.474247 Z-0.125000
G02 X139.810377 Y170.578514 Z-0.125000 I-1173.136004 J34.004446
G02 X139.697810 Y167.706477 Z-0.125000 I-277.798040 J9.449839
G01 X139.570370 Y164.834982 Z-0.125000
G01 X137.966130 Y163.206686 Z-0.125000
G03 X136.291647 Y160.727125 Z-0.125000 I5.824661 J-5.738658
G03 X135.853920 Y158.346495 Z-0.125000 I4.907987 J-2.132991
G02 X135.519541 Y157.073097 Z-0.125000 I-2.203376 J-0.102021
G02 X135.099420 Y157.142668 Z-0.125000 I-0.195528 J0.122545
G01 X135.099460 Y157.142667 Z-0.125000
G00 Z5.000000

(End cutting path id: path1)


(Start cutting path id: path1)
(Change tool to Default tool)

G00 Z5.000000
G00 X134.882950 Y163.924183

G01 Z-0.125000 F100.0(Penetrate)
G02 X134.981713 Y164.075678 Z-0.125000 I0.165573 J0.000000 F400.000000
G02 X135.193270 Y164.061033 Z-0.125000 I0.091865 J-0.208310
G02 X135.459068 Y163.844409 Z-0.125000 I-0.694143 J-1.123094
G02 X135.503600 Y163.732388 Z-0.125000 I-0.118629 J-0.112021
G02 X135.449597 Y163.649550 Z-0.125000 I-0.090536 J-0.000000
G02 X135.193270 Y163.595538 Z-0.125000 I-0.256327 J0.581223
G02 X134.976429 Y163.689022 Z-0.125000 I0.000000 J0.298230
G02 X134.882950 Y163.924183 Z-0.125000 I0.249053 J0.235161
G01 X134.882950 Y163.924183 Z-0.125000
G00 Z5.000000

(End cutting path id: path1)


(Start cutting path id: path1)
(Change tool to Default tool)

G00 Z5.000000
G00 X126.756170 Y167.531493

G01 Z-0.125000 F100.0(Penetrate)
G02 X127.143662 Y167.597904 Z-0.125000 I0.348858 J-0.871833 F400.000000
G02 X127.350970 Y167.506993 Z-0.125000 I-0.012807 J-0.311026
G02 X127.331155 Y167.410429 Z-0.125000 I-0.041755 J-0.041746
G02 X126.943660 Y167.344002 Z-0.125000 I-0.348862 J0.871623
G02 X126.736351 Y167.434913 Z-0.125000 I0.012801 J0.311016
G02 X126.756170 Y167.531492 Z-0.125000 I0.041756 J0.041755
G01 X126.756170 Y167.531493 Z-0.125000
G00 Z5.000000

(End cutting path id: path1)


(Start cutting path id: path1)
(Change tool to Default tool)

G00 Z5.000000
G00 X124.952370 Y167.009171

G01 Z-0.125000 F100.0(Penetrate)
G01 X125.417870 Y167.309997 Z-0.125000 F400.000000
G01 X124.952370 Y167.309997 Z-0.125000
G03 X124.507550 Y167.239915 Z-0.125000 I-0.000000 J-1.446711
G03 X124.021380 Y167.009171 Z-0.125000 I0.635272 J-1.966039
G01 X123.555890 Y166.708345 Z-0.125000
G01 X124.021380 Y166.708345 Z-0.125000
G03 X124.466200 Y166.778427 Z-0.125000 I0.000000 J1.446711
G03 X124.952370 Y167.009171 Z-0.125000 I-0.635272 J1.966039
G01 X124.952370 Y167.009171 Z-0.125000
G00 Z5.000000

(End cutting path id: path1)


(Start cutting path id: path1)
(Change tool to Default tool)

G00 Z5.000000
G00 X111.815060 Y157.595818

G01 Z-0.125000 F100.0(Penetrate)
G02 X111.698756 Y157.840204 Z-0.125000 I0.286015 J0.285982 F400.000000
G02 X111.608170 Y159.597172 Z-0.125000 I16.993324 J1.756968
G01 X111.608170 Y161.391640 Z-0.125000
G01 X110.444430 Y162.241571 Z-0.125000
G02 X109.313304 Y163.130669 Z-0.125000 I12.003301 J16.434876
G02 X107.961790 Y164.339126 Z-0.125000 I20.855374 J24.684213
G01 X106.642880 Y165.586747 Z-0.125000
G01 X106.642880 Y172.486251 Z-0.125000
G03 X106.493803 Y179.302646 Z-0.125000 I-155.911346 J-0.000000
G03 X106.332560 Y179.577550 Z-0.125000 I-0.340357 J-0.014895
G02 X106.154577 Y179.843145 Z-0.125000 I0.203002 J0.328472
G02 X106.022230 Y181.457846 Z-0.125000 I9.783939 J1.614701
G02 X106.163248 Y183.005318 Z-0.125000 I8.561158 J0.000000
G02 X106.332560 Y183.146349 Z-0.125000 I0.169312 J-0.031117
G03 X106.459894 Y183.420654 Z-0.125000 I0.000000 J0.166707
G03 X104.752940 Y185.015702 Z-0.125000 I-7.598691 J-6.420927
G02 X102.881729 Y186.428252 Z-0.125000 I54.314536 J73.896371
G02 X102.037550 Y187.120539 Z-0.125000 I12.181390 J15.714906
G01 X101.212110 Y187.836262 Z-0.125000
G01 X101.975350 Y187.622072 Z-0.125000
G02 X102.687797 Y187.305146 Z-0.125000 I-0.729159 J-2.598391
G02 X104.958210 Y185.737279 Z-0.125000 I-18.051294 J-28.567726
G01 X107.177810 Y184.066675 Z-0.125000
G01 X107.217410 Y178.563644 Z-0.125000
G03 X107.308359 Y173.062151 Z-0.125000 I294.938293 J2.124335
G03 X107.458540 Y169.240414 Z-0.125000 I142.472917 J3.684870
G01 X107.660030 Y165.420215 Z-0.125000
G01 X108.895990 Y164.430294 Z-0.125000
G02 X110.117861 Y163.423807 Z-0.125000 I-36.028548 J-44.983407
G02 X111.163780 Y162.509383 Z-0.125000 I-28.699021 J-33.881353
G01 X112.195610 Y161.578392 Z-0.125000
G01 X112.403530 Y159.483662 Z-0.125000
G02 X112.221239 Y157.695933 Z-0.125000 I-4.488382 J-0.445488
G02 X111.815030 Y157.595819 Z-0.125000 I-0.233370 J0.072743
G01 X111.815060 Y157.595818 Z-0.125000
G00 Z5.000000

(End cutting path id: path1)


(Start cutting path id: path1)
(Change tool to Default tool)

G00 Z5.000000
G00 X104.964680 Y156.845854

G01 Z-0.125000 F100.0(Penetrate)
G03 X104.808883 Y157.854241 Z-0.125000 I-406.701691 J-62.319634 F400.000000
G03 X104.627340 Y159.012252 Z-0.125000 I-592.937743 J-92.362495
G03 X103.842055 Y160.591032 Z-0.125000 I-2.899310 J-0.457426
G03 X101.910350 Y161.833089 Z-0.125000 I-3.586086 J-3.454080
G01 X101.367270 Y162.024407 Z-0.125000
G01 X101.341370 Y165.990858 Z-0.125000
G03 X101.303124 Y169.957171 Z-0.125000 I-632.956593 J-4.120001
G03 X101.183790 Y178.323126 Z-0.125000 I-2811.604507 J-35.921743
G01 X101.052100 Y186.688943 Z-0.125000
G01 X101.421140 Y186.319903 Z-0.125000
G02 X101.615217 Y185.877303 Z-0.125000 I-0.469879 J-0.469889
G02 X101.911660 Y174.385286 Z-0.125000 I-375.669263 J-15.440432
G01 X102.033150 Y162.819712 Z-0.125000
G01 X102.536040 Y162.509382 Z-0.125000
G02 X103.012641 Y162.164680 Z-0.125000 I-2.109352 J-3.418326
G02 X104.195860 Y161.112896 Z-0.125000 I-18.727084 J-22.258720
G01 X105.352790 Y160.026739 Z-0.125000
G01 X105.557040 Y157.932009 Z-0.125000
G02 X105.597454 Y155.985881 Z-0.125000 I-12.684685 J-1.236897
G02 X105.440340 Y155.837280 Z-0.125000 I-0.157114 J0.008757
G02 X105.232479 Y155.969069 Z-0.125000 I0.000000 J0.229817
G02 X104.964700 Y156.845854 Z-0.125000 I2.883949 J1.360070
G01 X104.964680 Y156.845854 Z-0.125000
G00 Z5.000000

(End cutting path id: path1)


(Start cutting path id: path1)
(Change tool to Default tool)

G00 Z5.000000
G00 X102.160270 Y155.947553

G01 Z-0.125000 F100.0(Penetrate)
G02 X101.988258 Y156.768335 Z-0.125000 I961.273202 J201.884024 F400.000000
G02 X101.842580 Y157.466509 Z-0.125000 I774.135811 J161.891502
G03 X101.531984 Y158.049749 Z-0.125000 I-1.153968 J-0.240208
G03 X100.314040 Y159.032033 Z-0.125000 I-4.728857 J-4.617143
G02 X98.960149 Y159.940655 Z-0.125000 I13.960794 J22.265249
G02 X97.356087 Y161.153160 Z-0.125000 I23.290378 J32.478885
G01 X95.781325 Y162.407010 Z-0.125000
G01 X95.781325 Y167.794488 Z-0.125000
G03 X95.695843 Y173.178699 Z-0.125000 I-169.608345 J-0.000000
G03 X95.488944 Y177.000415 Z-0.125000 I-85.645406 J-2.720182
G02 X94.811244 Y188.860240 Z-0.125000 I306.200097 J23.446311
G02 X95.037424 Y188.958966 Z-0.125000 I0.132454 J0.005001
G02 X95.181122 Y188.734662 Z-0.125000 I-0.440587 J-0.440439
G02 X95.488463 Y187.739463 Z-0.125000 I-8.922082 J-3.300405
G01 X95.576048 Y187.747383 Z-0.125000
G03 X95.567513 Y188.965037 Z-0.125000 I-8.513447 J0.549181
G02 X95.546048 Y191.071405 Z-0.125000 I15.408793 J1.210315
G02 X95.698151 Y191.214931 Z-0.125000 I0.152103 J-0.008833
G03 X95.852775 Y191.341258 Z-0.125000 I0.000000 J0.157793
G03 X95.856656 Y191.993792 Z-0.125000 I-1.651583 J0.336102
G03 X94.811428 Y193.917289 Z-0.125000 I-3.536740 J-0.676127
G03 X93.098812 Y194.636913 Z-0.125000 I-1.794050 J-1.871898
G02 X91.106678 Y195.499412 Z-0.125000 I0.092602 J2.945775
G02 X90.957867 Y196.779375 Z-0.125000 I0.734547 J0.734032
G02 X91.235075 Y196.879832 Z-0.125000 I0.202064 J-0.124889
G02 X92.013772 Y196.427271 Z-0.125000 I-0.701149 J-2.102641
G03 X92.864849 Y195.733336 Z-0.125000 I7.799405 J8.696726
G03 X94.591107 Y194.520252 Z-0.125000 I25.649987 J34.665941
G01 X96.349088 Y193.348062 Z-0.125000
G01 X96.557829 Y191.830302 Z-0.125000
G02 X96.658191 Y190.335382 Z-0.125000 I-10.662126 J-1.466637
G02 X96.553129 Y189.966666 Z-0.125000 I-0.706047 J0.001855
G03 X96.383400 Y189.379165 Z-0.125000 I0.966973 J-0.597625
G03 X96.353775 Y176.390861 Z-0.125000 I980.169071 J-8.729850
G03 X96.495913 Y163.415898 Z-0.125000 I981.546793 J4.264310
G03 X96.671346 Y162.755147 Z-0.125000 I1.426412 J0.025056
G03 X97.070692 Y162.285725 Z-0.125000 I1.337478 J0.733242
G03 X99.767216 Y160.340235 Z-0.125000 I27.305990 J35.005659
G01 X102.558210 Y158.481422 Z-0.125000
G01 X102.687490 Y157.081767 Z-0.125000
G02 X102.484731 Y155.910446 Z-0.125000 I-2.272226 J-0.209881
G02 X102.160560 Y155.947553 Z-0.125000 I-0.155918 J0.072437
G01 X102.160270 Y155.947553 Z-0.125000
G00 Z5.000000

(End cutting path id: path1)


(Start cutting path id: path1)
(Change tool to Default tool)

G00 Z5.000000
G00 X97.146782 Y153.669430

G01 Z-0.125000 F100.0(Penetrate)
G02 X95.940966 Y154.610594 Z-0.125000 I98.714792 J127.716107 F400.000000
G02 X93.619420 Y156.449616 Z-0.125000 I374.026655 J474.548832
G03 X91.349310 Y158.024701 Z-0.125000 I-13.084324 J-16.434485
G03 X91.097986 Y157.963669 Z-0.125000 I-0.094753 J-0.157797
G02 X90.892031 Y157.873148 Z-0.125000 I-0.168692 J0.104254
G02 X90.625623 Y158.054039 Z-0.125000 I0.076346 J0.399060
G02 X90.428856 Y158.711078 Z-0.125000 I1.062132 J0.676066
G02 X90.245671 Y177.104356 Z-0.125000 I1784.272243 J26.967716
G02 X90.255484 Y195.326817 Z-0.125000 I1705.073934 J8.193003
G02 X90.446146 Y195.404392 Z-0.125000 I0.111379 J-0.000655
G02 X90.604467 Y195.032522 Z-0.125000 I-0.391512 J-0.386321
G02 X90.931458 Y176.939738 Z-0.125000 I-1102.232352 J-28.969980
G03 X91.114110 Y158.785614 Z-0.125000 I46733.817262 J461.117850
G03 X91.118465 Y158.707832 Z-0.125000 I0.852965 J0.008748
G01 X91.158756 Y158.665779 Z-0.125000
G03 X91.623962 Y158.630242 Z-0.125000 I0.465206 J3.027140
G02 X92.071521 Y158.491521 Z-0.125000 I0.000000 J-0.791348
G02 X94.494523 Y156.661670 Z-0.125000 I-18.793770 J-27.404951
G03 X96.890815 Y154.723333 Z-0.125000 I79.445993 J95.765635
G03 X98.232948 Y153.713532 Z-0.125000 I22.882641 J29.016660
G01 X99.598406 Y152.733965 Z-0.125000
G01 X98.977756 Y152.733965 Z-0.125000
G02 X98.404198 Y152.871998 Z-0.125000 I-0.000000 J1.260643
G02 X97.146782 Y153.669425 Z-0.125000 I3.653982 J7.151841
G01 X97.146782 Y153.669430 Z-0.125000
G00 Z5.000000

(End cutting path id: path1)


(Start cutting path id: path2)
(Change tool to Default tool)

G00 Z5.000000
G00 X81.258912 Y137.471603

G01 Z-0.125000 F100.0(Penetrate)
G02 X81.785684 Y138.544852 Z-0.125000 I1.356709 J0.000000 F400.000000
G02 X91.450643 Y145.352800 Z-0.125000 I81.150065 J-104.940912
G03 X93.116742 Y146.521426 Z-0.125000 I-12.879915 J20.134753
G03 X94.429743 Y147.637593 Z-0.125000 I-10.432323 J13.602404
G02 X99.256902 Y151.882620 Z-0.125000 I65.722153 J-69.867731
G02 X100.464860 Y152.596367 Z-0.125000 I2.901085 J-3.530790
G02 X101.017717 Y152.500624 Z-0.125000 I0.198530 J-0.497690
G02 X100.982490 Y152.140059 Z-0.125000 I-0.147719 J-0.167571
G03 X100.413416 Y151.742032 Z-0.125000 I2.119448 J-3.636083
G03 X98.316564 Y149.926560 Z-0.125000 I42.878891 J-51.643337
G02 X91.659243 Y144.333098 Z-0.125000 I-82.107221 J90.965274
G02 X87.196281 Y141.237310 Z-0.125000 I-29.439762 J37.676209
G03 X86.706774 Y140.902772 Z-0.125000 I3.105436 J-5.069374
G03 X85.138037 Y139.674582 Z-0.125000 I40.594894 J-53.466819
G02 X81.605916 Y137.269612 Z-0.125000 I-16.525143 J20.473815
G02 X81.258912 Y137.471603 Z-0.125000 I-0.114712 J0.201991
G01 X81.258912 Y137.471603 Z-0.125000
G00 Z5.000000

(End cutting path id: path2)


(Start cutting path id: path1)
(Change tool to Default tool)

G00 Z5.000000
G00 X147.047890 Y153.106368

G01 Z-0.125000 F100.0(Penetrate)
G02 X146.800034 Y153.530346 Z-0.125000 I0.684790 J0.684763 F400.000000
G02 X146.675490 Y154.438242 Z-0.125000 I3.246907 J0.907896
G01 X146.675490 Y155.397719 Z-0.125000
G01 X147.994400 Y156.658057 Z-0.125000
G02 X149.357960 Y157.865731 Z-0.125000 I16.628317 J-17.401074
G02 X151.870540 Y159.837650 Z-0.125000 I46.933732 J-57.215325
G03 X154.249509 Y161.875351 Z-0.125000 I-14.596829 J19.449003
G03 X154.618550 Y162.516925 Z-0.125000 I-0.947793 J0.972108
G03 X154.822311 Y164.400451 Z-0.125000 I-6.672162 J1.674582
G03 X154.135550 Y178.379096 Z-0.125000 I-373.833720 J-11.359987
G02 X153.892734 Y183.700617 Z-0.125000 I120.087554 J8.145779
G02 X153.871510 Y189.628941 Z-0.125000 I149.024109 J3.497725
G03 X153.886327 Y195.479505 Z-0.125000 I-212.360831 J3.463132
G03 X153.804810 Y195.559928 Z-0.125000 I-0.081333 J-0.000914
G03 X153.664329 Y195.504177 Z-0.125000 I0.000472 J-0.206056
G03 X151.477330 Y193.377419 Z-0.125000 I57.530920 J-61.348345
G01 X149.313340 Y191.195283 Z-0.125000
G01 X149.313340 Y177.333118 Z-0.125000
G01 X149.313340 Y163.470955 Z-0.125000
G01 X146.832850 Y161.737080 Z-0.125000
G01 X144.352370 Y160.003204 Z-0.125000
G01 X144.138850 Y158.510565 Z-0.125000
G02 X143.755902 Y157.363995 Z-0.125000 I-3.337166 J0.477359
G02 X143.536500 Y157.414787 Z-0.125000 I-0.102532 J0.056362
G02 X144.136721 Y159.963422 Z-0.125000 I4.749996 J0.226338
G02 X146.213870 Y162.199046 Z-0.125000 I5.636812 J-3.154473
G03 X148.404850 Y163.862397 Z-0.125000 I-11.547241 J17.484787
G03 X148.715580 Y164.371359 Z-0.125000 I-0.645576 J0.743469
G03 X148.789147 Y165.000672 Z-0.125000 I-2.486171 J0.609593
G03 X148.621180 Y176.629407 Z-0.125000 I-862.826857 J-6.647240
G02 X148.562841 Y192.184973 Z-0.125000 I445.896922 J9.450163
G02 X148.837860 Y192.456252 Z-0.125000 I0.275019 J-0.003765
G03 X149.055817 Y192.530949 Z-0.125000 I-0.000000 J0.355337
G03 X150.336290 Y193.619991 Z-0.125000 I-11.602203 J14.938921
G02 X153.497154 Y196.300197 Z-0.125000 I30.723558 J-33.029452
G02 X154.055300 Y196.490547 Z-0.125000 I0.558146 J-0.723122
G02 X154.411983 Y196.158382 Z-0.125000 I0.000000 J-0.357588
G02 X154.744160 Y186.825496 Z-0.125000 I-130.942863 J-9.332886
G03 X154.841234 Y178.145421 Z-0.125000 I388.123785 J0.000000
G03 X155.036890 Y173.739421 Z-0.125000 I100.165242 J2.240675
G02 X155.307505 Y169.335418 Z-0.125000 I-438.240868 J-29.139106
G02 X155.492110 Y165.669753 Z-0.125000 I-303.899500 J-17.142050
G01 X155.654590 Y162.002862 Z-0.125000
G01 X154.771520 Y161.169963 Z-0.125000
G02 X153.863619 Y160.365712 Z-0.125000 I-13.324858 J14.127560
G02 X151.157660 Y158.164753 Z-0.125000 I-102.703046 J123.503882
G03 X148.445642 Y155.971422 Z-0.125000 I134.619469 J-169.228120
G03 X148.016720 Y155.582360 Z-0.125000 I3.785791 J-4.604616
G03 X147.611500 Y154.403955 Z-0.125000 I1.003892 J-1.004085
G03 X148.304810 Y153.253597 Z-0.125000 I1.637024 J0.202515
G01 X149.003050 Y152.766527 Z-0.125000
G01 X148.211700 Y152.750247 Z-0.125000
G02 X147.468492 Y152.853638 Z-0.125000 I-0.048544 J2.373961
G02 X147.047960 Y153.106366 Z-0.125000 I0.296794 J0.970096
G01 X147.047890 Y153.106368 Z-0.125000
G00 Z5.000000

(End cutting path id: path1)


(Start cutting path id: path3)
(Change tool to Default tool)

G00 Z5.000000
G00 X165.549810 Y134.359641

G01 Z-0.125000 F100.0(Penetrate)
G02 X165.419427 Y134.906835 Z-0.125000 I7.974585 J2.189272 F400.000000
G02 X165.212030 Y136.026311 Z-0.125000 I33.391086 J6.765083
G01 X165.023230 Y137.149904 Z-0.125000
G01 X160.317030 Y141.457093 Z-0.125000
G03 X155.578046 Y145.726200 Z-0.125000 I-273.562833 J-298.907534
G03 X153.884200 Y147.161003 Z-0.125000 I-32.552030 J-36.711829
G03 X148.346721 Y151.616388 Z-0.125000 I-847.587947 J-1047.775521
G03 X147.600180 Y152.189806 Z-0.125000 I-14.771446 J-18.458481
G01 X146.881980 Y152.719063 Z-0.125000
G01 X147.682500 Y152.732883 Z-0.125000
G02 X148.404494 Y152.535132 Z-0.125000 I0.022986 J-1.332962
G02 X150.320310 Y151.108630 Z-0.125000 I-7.116096 J-11.556773
G03 X152.173726 Y149.489382 Z-0.125000 I81.287035 J91.172053
G03 X154.174730 Y147.809052 Z-0.125000 I89.584301 J104.648937
G02 X164.945147 Y138.234194 Z-0.125000 I-121.598843 J-147.627267
G02 X165.850150 Y136.614273 Z-0.125000 I-2.194594 J-2.288817
G03 X166.038260 Y135.838908 Z-0.125000 I15.383556 J3.321685
G03 X166.303280 Y134.933986 Z-0.125000 I21.137911 J5.699278
G02 X166.378489 Y134.020437 Z-0.125000 I-1.964661 J-0.621614
G02 X166.143360 Y133.816562 Z-0.125000 I-0.235129 J0.033650
G02 X165.800388 Y133.949787 Z-0.125000 I-0.000000 J0.508082
G02 X165.549810 Y134.359639 Z-0.125000 I0.584587 J0.638935
G01 X165.549810 Y134.359641 Z-0.125000
G00 Z5.000000

(End cutting path id: path3)


(Start cutting path id: path1)
(Change tool to Default tool)

G00 Z5.000000
G00 X186.546640 Y181.594691

G01 Z-0.125000 F100.0(Penetrate)
G02 X186.556412 Y193.802417 Z-0.125000 I7625.631739 J-0.000380 F400.000000
G02 X186.571240 Y197.825451 Z-0.125000 I964.768938 J-1.544463
G02 X186.589078 Y199.446164 Z-0.125000 I154.796639 J-0.893319
G01 X186.597856 Y199.446261 Z-0.125000
G02 X186.607183 Y199.059688 Z-0.125000 I-13.579245 J-0.521060
G02 X186.630340 Y196.102633 Z-0.125000 I-715.638813 J-7.082752
G02 X186.672249 Y181.594691 Z-0.125000 I-2511.154190 J-14.507940
G02 X186.630340 Y167.086749 Z-0.125000 I-2511.196098 J-0.000002
G02 X186.607147 Y164.129694 Z-0.125000 I-715.741592 J4.135125
G02 X186.597813 Y163.743122 Z-0.125000 I-13.585766 J0.134624
G01 X186.589034 Y163.743219 Z-0.125000
G02 X186.571202 Y165.363931 Z-0.125000 I154.765195 J2.513216
G02 X186.556391 Y169.386965 Z-0.125000 I965.057393 J5.564689
G02 X186.546640 Y181.594691 Z-0.125000 I7642.055460 J12.207529
G01 X186.546640 Y181.594691 Z-0.125000
G00 Z5.000000

(End cutting path id: path1)


(Footer)
M5
G00 X0.0000 Y0.0000
M2
(Using default footer. To add your own footer create file "footer" in the output dir.)
(end)
%